icons/file/icon_format-jpg_m_white.svg

<svg width="24" height="24" viewBox="0 0 24 24" fill="none" xmlns="http://www.w3.org/2000/svg"><path d="M0 0h24v24H0z"/><path fill-rule="evenodd" clip-rule="evenodd" d="M20 8h-1V4c0-1.103-.897-2-2-2H7.707L3 6.707V7H2v-.707L7.293 1H17c1.654 0 3 1.346 3 3v4zm-3 15H5c-1.654 0-3-1.346-3-3v-1h1v1c0 1.103.897 2 2 2h12c1.103 0 2-.897 2-2v-1h1v1c0 1.654-1.346 3-3 3z" fill="#fff"/><path d="M5.451 10.094h.918v4.824c0 .652-.2 1.162-.6 1.53-.395.368-.925.552-1.587.552-.688 0-1.223-.173-1.607-.52-.383-.346-.575-.83-.575-1.455h.913c0 .39.107.694.323.913.219.218.534.327.946.327.377 0 .681-.117.913-.35.234-.234.353-.562.356-.983v-4.838zm4.331 4.146v2.666h-.913v-6.812h2.553c.757 0 1.35.19 1.778.57.431.381.647.885.647 1.512 0 .661-.211 1.171-.633 1.53-.418.356-1.019.533-1.802.533h-1.63zm0-.735h1.64c.488 0 .862-.113 1.122-.337.26-.228.39-.555.39-.983 0-.405-.13-.73-.39-.973s-.617-.37-1.07-.38H9.782v2.673zm10.752 2.508c-.235.33-.563.578-.984.744-.419.162-.907.243-1.465.243a2.9 2.9 0 01-1.502-.388 2.648 2.648 0 01-1.017-1.114c-.238-.48-.36-1.037-.366-1.67v-.595c0-1.026.242-1.822.727-2.386.488-.565 1.173-.847 2.054-.847.722 0 1.304.182 1.744.547.441.362.71.877.809 1.545h-.913c-.171-.902-.716-1.353-1.636-1.353-.611 0-1.075.212-1.392.637-.314.42-.473 1.032-.476 1.834v.557c0 .764.178 1.372.533 1.825.355.449.835.673 1.44.673.342 0 .642-.037.899-.112.256-.075.469-.201.637-.379v-1.53h-1.603v-.73h2.51v2.499z" fill="#fff" fill-opacity=".9"/></svg>

<svg xmlns="http://www.w3.org/2000/svg" width="24" height="24" viewBox="0 0 24 24" fill="none"><rect width="24" height="24" fill="none"/>
<path fill-rule="evenodd" clip-rule="evenodd" d="M20 8H19V4C19 2.897 18.103 2 17 2H7.707L3 6.707V7H2V6.293L7.293 1H17C18.654 1 20 2.346 20 4V8ZM17 23H5C3.346 23 2 21.654 2 20V19H3V20C3 21.103 3.897 22 5 22H17C18.103 22 19 21.103 19 20V19H20V20C20 21.654 18.654 23 17 23Z" fill="white"/>
<path d="M5.451 10.094H6.369V14.918C6.369 15.57 6.169 16.08 5.769 16.448C5.374 16.816 4.844 17 4.182 17C3.494 17 2.959 16.827 2.575 16.48C2.192 16.134 2 15.65 2 15.025H2.913C2.913 15.415 3.02 15.719 3.236 15.938C3.455 16.156 3.77 16.265 4.182 16.265C4.559 16.265 4.863 16.148 5.095 15.915C5.329 15.681 5.448 15.353 5.451 14.932V10.094V10.094ZM9.782 14.24V16.906H8.869V10.094H11.422C12.179 10.094 12.772 10.284 13.2 10.664C13.631 11.045 13.847 11.549 13.847 12.176C13.847 12.837 13.636 13.347 13.214 13.706C12.796 14.062 12.195 14.239 11.412 14.239H9.782V14.24ZM9.782 13.505H11.422C11.91 13.505 12.284 13.392 12.544 13.168C12.804 12.94 12.934 12.613 12.934 12.185C12.934 11.78 12.804 11.455 12.544 11.212C12.284 10.969 11.927 10.842 11.474 10.832H9.782V13.505V13.505ZM20.534 16.013C20.299 16.343 19.971 16.591 19.55 16.757C19.131 16.919 18.643 17 18.085 17C17.5584 17.0095 17.0391 16.8753 16.583 16.612C16.1432 16.3471 15.7898 15.9601 15.566 15.498C15.328 15.018 15.206 14.461 15.2 13.828V13.233C15.2 12.207 15.442 11.411 15.927 10.847C16.415 10.282 17.1 10 17.981 10C18.703 10 19.285 10.182 19.725 10.547C20.166 10.909 20.435 11.424 20.534 12.092H19.621C19.45 11.19 18.905 10.739 17.985 10.739C17.374 10.739 16.91 10.951 16.593 11.376C16.279 11.796 16.12 12.408 16.117 13.21V13.767C16.117 14.531 16.295 15.139 16.65 15.592C17.005 16.041 17.485 16.265 18.09 16.265C18.432 16.265 18.732 16.228 18.989 16.153C19.245 16.078 19.458 15.952 19.626 15.774V14.244H18.023V13.514H20.533V16.013H20.534Z" fill="white" fill-opacity="0.9"/>
</svg>
